svgs/sharp-solid/car-battery.svg

<svg xmlns="http://www.w3.org/2000/svg" viewBox="0 0 512 512"><!--! Font Awesome Pro 6.6.0 by @fontawesome - https://fontawesome.com License - https://fontawesome.com/license (Commercial License) Copyright 2024 Fonticons, Inc. --><path d="M80 64l128 0 0 32 96 0 0-32 128 0 0 32 80 0 0 352L0 448 0 96l80 0 0-32zM384 192l0-16-32 0 0 16 0 32-32 0-16 0 0 32 16 0 32 0 0 32 0 16 32 0 0-16 0-32 32 0 16 0 0-32-16 0-32 0 0-32zM80 224l0 32 16 0 96 0 16 0 0-32-16 0-96 0-16 0z"/></svg>

<svg xmlns="http://www.w3.org/2000/svg" viewBox="0 0 512 512"><!--! Font Awesome Pro 6.4.2 by @fontawesome - https://fontawesome.com License - https://fontawesome.com/license (Commercial License) Copyright 2023 Fonticons, Inc. --><path d="M80 64H208V96h96V64H432V96h80V448H0V96H80V64zM384 192V176H352v16 32H320 304v32h16 32v32 16h32V288 256h32 16V224H416 384V192zM80 224v32H96h96 16V224H192 96 80z"/></svg>
